public/svg/tho-love.svg

<svg width="76" height="32" viewBox="0 0 76 32" fill="none" xmlns="http://www.w3.org/2000/svg">
<path d="M75.2229 6.91298C74.0525 2.83792 70.7953 -0.264207 66.269 0.0178041C62.0388 0.328017 59.0918 3.33144 57.2588 6.87068C55.4257 -1.22305 42.298 -2.40749 38.4486 4.812C37.2952 3.38875 35.8194 2.26069 34.1434 1.52121C32.4674 0.781723 30.6393 0.452083 28.8106 0.559575C26.9818 0.667068 25.205 1.2086 23.6271 2.13935C22.0493 3.07009 20.7158 4.36327 19.7371 5.91184C15.9582 -1.39225 5.36866 -2.30879 1.2513 5.55933C-4.38893 16.2899 10.4026 27.387 18.4681 31.6313C18.5726 31.6933 18.692 31.7261 18.8136 31.7261C18.9351 31.7261 19.0545 31.6933 19.159 31.6313C19.2873 31.8123 19.4796 31.9377 19.6969 31.9822C19.9142 32.0267 20.1403 31.987 20.3294 31.871C26.401 28.478 31.8549 24.0824 36.4604 18.8703L37.5462 17.6012C41.4198 24.0435 47.3956 28.9536 54.4668 31.5044C54.6476 31.578 54.8501 31.578 55.0309 31.5044C65.5358 29.629 78.5365 18.6024 75.2229 6.91298ZM35.1209 17.5307C30.6063 22.5946 25.29 26.8819 19.3846 30.2212C19.3169 30.2645 19.2552 30.3167 19.2013 30.3763C13.6316 26.6961 6.2711 21.5917 3.36638 15.2746C-1.72392 4.16337 13.0253 -3.63424 18.877 7.3078C18.9423 7.42534 19.0425 7.51969 19.1638 7.57779C19.285 7.63589 19.4213 7.65487 19.5538 7.63211C19.6961 7.69247 19.8552 7.70008 20.0025 7.65354C20.1499 7.60701 20.2758 7.50941 20.3576 7.3783C23.4879 2.83792 29.6075 0.440822 34.5427 3.72625C35.8278 4.53268 36.9012 5.63504 37.6731 6.94118V7.11039C37.6481 7.24488 37.677 7.38379 37.7535 7.49719C37.83 7.6106 37.9479 7.68943 38.082 7.71671C39.3087 10.9034 37.8 14.4427 35.1209 17.5307ZM55.0732 29.8546C48.4629 26.9887 42.7136 22.4496 38.3922 16.6847C40.4932 13.9492 41.7199 11.1855 40.0561 7.4065C39.8632 6.98107 39.6467 6.5668 39.4074 6.16565C44.0183 -0.34881 54.6642 0.384419 55.9615 9.42288C55.9853 9.53278 56.0386 9.63412 56.1156 9.71608C56.1926 9.79804 56.2904 9.85754 56.3986 9.8882C56.4835 9.94703 56.5844 9.97854 56.6877 9.97854C56.791 9.97854 56.8918 9.94703 56.9767 9.8882C57.1453 9.84906 57.2967 9.75656 57.4085 9.62446C57.5203 9.49235 57.5865 9.32769 57.5972 9.15497C57.5972 9.08447 57.5972 9.01397 57.5972 8.92936C60.3045 4.54409 64.6474 -0.0808999 70.2877 2.5136C75.5472 4.9107 74.2922 13.4133 72.0361 17.4179C68.5251 23.6081 61.4889 27.4575 55.0732 29.8546Z" fill="#3A3C51"/>
<path d="M71.4892 8.01289C71.0893 7.63922 70.743 7.21217 70.4598 6.74384L69.6138 5.65809C69.36 5.30558 68.7819 5.65809 69.0357 5.9965L69.9099 7.25146C70.2633 7.67743 70.553 8.15239 70.77 8.66151C71.0239 9.39474 72.2365 8.57691 71.4892 8.01289Z" fill="#3A3C51"/>
<path d="M67.7816 2.98003C67.2035 3.05053 67.1612 3.92477 67.7816 3.92477C68.5666 3.92168 69.3339 4.15777 69.9813 4.6016C70.6299 5.05282 70.912 5.72964 71.4619 6.23726C71.8003 6.54748 72.5053 6.36417 72.463 5.82835C72.2797 3.81197 69.516 2.76852 67.7816 2.98003Z" fill="#3A3C51"/>
<path d="M13.4177 23.6212C12.2756 22.8175 11.0347 22.2112 9.949 21.3369C8.9557 20.493 8.05309 19.5479 7.25579 18.5168C6.91738 18.0938 6.21235 18.6437 6.50846 19.095C8.01759 21.6101 10.2828 23.5841 12.9806 24.7352C13.6292 24.8762 13.9254 23.9878 13.4177 23.6212Z" fill="#3A3C51"/>
<path d="M16.2283 22.9321C15.4495 22.3766 14.6292 21.8816 13.7748 21.4515C12.9096 20.8359 12.1193 20.1213 11.42 19.3223C11.1238 18.9839 10.5175 19.4351 10.7854 19.8158C11.4255 20.7042 12.1686 21.5136 12.9992 22.227C13.7309 23.0033 14.648 23.5808 15.6642 23.905C16.186 23.9896 16.6795 23.3692 16.2283 22.9321Z" fill="#3A3C51"/>
</svg>

<svg xmlns="http://www.w3.org/2000/svg" width="76" height="32" fill="#3a3c51" xmlns:v="https://vecta.io/nano"><path d="M75.223 6.913C74.053 2.838 70.795-.264 66.27.018c-4.23.3-7.177 3.314-9 6.853-1.833-8.094-14.96-9.278-18.8-2.06-1.153-1.423-2.63-2.55-4.305-3.3S30.64.452 28.8.56a11.55 11.55 0 0 0-5.184 1.58c-1.578.93-2.9 2.224-3.9 3.772C15.958-1.392 5.37-2.3 1.25 5.56-4.4 16.3 10.403 27.387 18.468 31.63a.68.68 0 0 0 .346.095c.122 0 .24-.033.345-.095.128.18.32.306.538.35s.443.005.633-.1a61.68 61.68 0 0 0 16.13-13l1.086-1.27a32.69 32.69 0 0 0 16.92 13.903.75.75 0 0 0 .564 0c10.505-1.875 23.506-12.902 20.192-24.6zM35.12 17.53a61.91 61.91 0 0 1-15.736 12.69.88.88 0 0 0-.183.155C13.63 26.695 6.27 21.6 3.366 15.273c-5.1-11.1 9.66-18.9 15.5-7.967a.65.65 0 0 0 .677.324.65.65 0 0 0 .804-.254c3.13-4.54 9.25-6.937 14.185-3.652a9.51 9.51 0 0 1 3.13 3.215v.17a.52.52 0 0 0 .409.606c1.227 3.187-.282 6.726-2.96 9.814zm19.952 12.324c-6.6-2.866-12.36-7.405-16.68-13.17 2.1-2.735 3.328-5.5 1.664-9.278a12.49 12.49 0 0 0-.649-1.241C44.018-.35 54.664.384 55.962 9.423a.62.62 0 0 0 .437.465.51.51 0 0 0 .289.09.46.46 0 0 0 .29-.1c.17-.04.32-.132.432-.264s.178-.297.2-.47V8.93c2.707-4.385 7.05-9 12.7-6.416 5.26 2.397 4.004 10.9 1.748 14.904-3.5 6.2-10.547 10.04-16.963 12.437zM71.5 8.013a5.95 5.95 0 0 1-1.029-1.269l-.846-1.086c-.254-.353-.832 0-.578.338L69.9 7.25a5.72 5.72 0 0 1 .86 1.41c.254.733 1.467-.085.72-.65zM67.782 2.98c-.578.07-.62.945 0 .945.785-.003 1.552.233 2.2.677.65.45.93 1.128 1.48 1.636.338.3 1.043.127 1-.4-.183-2.016-2.947-3.06-4.68-2.848zM13.418 23.62l-3.47-2.284a18.75 18.75 0 0 1-2.693-2.82c-.338-.423-1.043.127-.747.578a13.92 13.92 0 0 0 6.472 5.64c.65.14.945-.747.437-1.114zm2.8-.688a18.72 18.72 0 0 0-2.453-1.481 13.63 13.63 0 0 1-2.355-2.129c-.296-.338-.902.113-.635.494.64.888 1.383 1.698 2.214 2.4a6.29 6.29 0 0 0 2.665 1.678c.522.085 1.015-.536.564-.973z"/></svg>
